X:247
T:Triumph
O:No 247 William Clarke of Feltwell
M:4/4
L:1/8
N:Bar C2 in M.s. is |A2AcB4G4|. Minims changed to crotchets.
K:G
g|dBBd cAAB|Ggfge2dg|dBBd cAAB|GBdBG3::A2AcB2d2|A2AcB2d2|A2AcB2de|dcBAG4::B2Bd dcBc|A2AcB2G2|GABc defg|dcBAG4"DC":|

